logos/coursera.svg

<?xml version="1.0" encoding="UTF-8"?>
<svg width="512px" height="73px" viewBox="0 0 512 73" version="1.1" xmlns="http://www.w3.org/2000/svg" xmlns:xlink="http://www.w3.org/1999/xlink" preserveAspectRatio="xMidYMid">
    <title>Coursera</title>
    <g>
        <path d="M168.022161,1.77728975 L168.022161,41.7950139 C168.022161,50.6371191 172.950693,55.8581717 181.504709,55.8581717 C191.073684,55.8581717 196.573961,50.0565097 196.573961,38.8919668 L196.573961,1.77728975 L214.408864,1.77728975 L214.408864,70.6437673 L196.587258,70.6437673 L196.587258,62.665928 C192.385596,69.1900277 185.568975,72.3811647 176.14626,72.3811647 C160.199446,72.3855956 150.196122,60.7867036 150.196122,43.966759 L150.196122,1.77728975 L168.022161,1.77728975 Z M359.552355,0.474161619 C379.851524,0.514122992 394.171745,16.7756233 394.123116,35.9313019 C394.126537,37.825241 393.978504,39.7163878 393.679778,41.5867036 L341.198892,41.4891967 C343.21108,49.7551247 350.014404,55.7119114 360.310249,55.734072 C366.541828,55.734072 373.21662,53.4382271 377.285319,48.2260388 L389.447091,57.9767313 C383.193352,66.8099723 372.161773,72.0088643 360.425485,71.9867742 C339.705263,71.9157895 323.785042,56.3722992 323.82044,36.2193906 C323.860388,16.9351801 337.66205,0.434343269 359.552355,0.474161619 Z M472.713573,0.474269252 C483.585596,0.474269252 489.821607,3.80723324 494.023269,10.189518 L495.694183,1.76845208 L512,1.76845208 L512,70.6437673 L495.694183,70.6437673 L493.58892,63.5523546 C488.806648,68.7734072 482.858726,71.9734072 472.713573,71.9734072 C457.054848,71.9512465 439.219945,58.1761773 439.219945,36.7202659 C439.219945,15.1180499 456.762327,0.474269252 472.713573,0.474269252 Z M107.337396,0.474269252 C127.778393,0.474269252 144.017729,16.4299612 144.017729,36.1396565 C144.017729,55.7119114 127.778393,71.9512465 107.337396,71.9512465 C87.0382271,71.9512465 70.8033241,55.6941828 70.8033241,36.1396565 C70.8033241,16.421097 87.0382271,0.474269252 107.337396,0.474269252 Z M290.716898,0.0354916787 C302.21385,0.0354916787 312.398892,5.12802216 317.930194,14.5861939 L302.222715,22.8964432 C299.895845,18.2382715 295.530194,15.6188809 289.998892,15.6188809 C284.618283,15.6188809 281.99446,17.5114017 281.99446,20.7114017 C281.99446,31.4814848 319.539058,24.6427036 319.539058,50.4066482 C319.539058,63.7961219 308.627147,71.9423823 291.018283,71.9423823 C276.028809,71.9290859 265.551247,66.9828255 260.316898,55.632133 L276.166205,47.3351801 C278.785596,53.0127424 284.024377,56.3590028 291.448199,56.3590028 C298.286981,56.3590028 300.906371,54.1783934 300.906371,51.1202216 C300.906371,40.0399335 263.361773,46.7545706 263.361773,21.4249751 C263.361773,7.45489197 275.585596,0.0354916787 290.716898,0.0354916787 Z M36.534072,0.328011524 C42.6374737,0.285232133 48.6555125,1.76176399 54.0463158,4.62453186 C59.4366759,7.48733518 64.0301385,11.6463601 67.4127424,16.7269141 L52.1927978,25.555723 C50.4319114,23.0391579 48.0877562,20.9862382 45.361108,19.5722992 C42.6341053,18.1583601 39.6056288,17.425374 36.534072,17.4360554 C26.0963989,17.4360554 17.5423823,26.1363324 17.5423823,36.1396565 C17.5423823,46.1429363 26.0963989,54.8432133 36.534072,54.8432133 C39.7504709,54.8640443 42.9185596,54.0604986 45.7360665,52.5083657 C48.5531302,50.9566759 50.925651,48.7086981 52.6271468,45.9789474 L67.6963989,54.967313 C64.3550139,60.1963435 59.7442659,64.494626 54.294072,67.4610526 C48.8434349,70.4279224 42.7306371,71.9663158 36.5252078,71.9340316 C16.234903,71.9512465 0,55.6941828 0,36.1396565 C0,16.2792687 16.234903,0.328011524 36.534072,0.328011524 Z M260.210526,0 L256.921884,16.6426593 C256.315568,16.5765319 255.70615,16.5424931 255.095845,16.5407202 C245.531302,16.5628809 240.031025,22.3734072 240.057618,33.533518 L240.057618,33.533518 L240.155125,70.6393352 L222.324654,70.6792244 L222.173961,1.81717895 L240.004432,1.77728975 L240.004432,9.75512465 C244.157341,3.27535069 250.903047,0.0753462604 260.210526,0 L260.210526,0 Z M439.383934,0.0488008864 L436.077562,16.6737285 C435.488089,16.6161108 434.885319,16.5717895 434.251524,16.5717895 C424.695845,16.5717895 419.182271,22.3690194 419.182271,33.5335623 L419.182271,33.5335623 L419.182271,70.6437673 L401.351801,70.6437673 L401.351801,1.77290194 L419.182271,1.77290194 L419.182271,9.75073684 C423.352909,3.28425928 430.089751,0.097554349 439.383934,0.0488008864 L439.383934,0.0488008864 Z M107.337396,17.5823158 C96.899723,17.5823158 88.3457064,26.2825928 88.3457064,36.1396565 C88.3457064,46.1429363 96.899723,54.8432133 107.337396,54.8432133 C117.939058,54.8432133 126.475346,46.1429363 126.475346,36.1396565 C126.475346,26.2825928 117.92133,17.5823158 107.337396,17.5823158 Z M475.762881,17.5888232 C470.705817,17.6083324 465.865928,19.6348366 462.306925,23.2226482 C458.74349,26.8105042 456.757895,31.6657285 456.775506,36.7202659 C456.775506,46.2891967 465.32964,54.8432133 475.771745,54.8432133 C486.342382,54.8432133 494.891967,46.2891967 494.891967,36.5740055 C494.874238,31.5194681 492.844321,26.6796233 489.258726,23.1192465 C485.668698,19.5588698 480.815512,17.5695512 475.762881,17.5888232 Z M359.379501,16.7135734 C351.113573,16.7135734 344.438781,21.6155125 341.814958,29.0038781 L376.172853,29.065928 C375.171191,22.1074792 367.933518,16.7268698 359.379501,16.7135734 Z" fill="#0056D2" fill-rule="nonzero"></path>
    </g>
</svg>

<svg preserveAspectRatio="xMidYMid" viewBox="0 0 512 73" xmlns="http://www.w3.org/2000/svg">
  <path fill="#0056D2" d="M168.022 1.777v40.018c0 8.842 4.929 14.063 13.483 14.063 9.569 0 15.069-5.801 15.069-16.966V1.777h17.835v68.867h-17.822v-7.978c-4.201 6.524-11.018 9.715-20.44 9.715-15.948.005-25.95-11.594-25.95-28.414V1.777h17.825ZM359.552.474c20.3.04 34.62 16.302 34.571 35.457a35.45 35.45 0 0 1-.443 5.656l-52.481-.098c2.012 8.266 8.815 14.223 19.111 14.245 6.232 0 12.907-2.296 16.975-7.508l12.162 9.75c-6.254 8.834-17.285 14.033-29.022 14.01-20.72-.07-36.64-15.614-36.605-35.767.04-19.284 13.842-35.785 35.732-35.745Zm113.162 0c10.872 0 17.108 3.333 21.31 9.716l1.67-8.422H512v68.876h-16.306l-2.105-7.092c-4.782 5.221-10.73 8.421-20.875 8.421-15.66-.022-33.494-13.797-33.494-35.253 0-21.602 17.542-36.246 33.494-36.246Zm-365.377 0c20.441 0 36.68 15.956 36.68 35.666 0 19.572-16.239 35.811-36.68 35.811-20.299 0-36.534-16.257-36.534-35.811 0-19.72 16.235-35.666 36.534-35.666Zm183.38-.439c11.497 0 21.682 5.093 27.213 14.551l-15.707 8.31c-2.327-4.658-6.693-7.277-12.224-7.277-5.38 0-8.005 1.892-8.005 5.092 0 10.77 37.545 3.932 37.545 29.696 0 13.39-10.912 21.535-28.52 21.535-14.99-.013-25.468-4.96-30.702-16.31l15.85-8.297c2.619 5.678 7.857 9.024 15.281 9.024 6.839 0 9.458-2.18 9.458-5.239 0-11.08-37.544-4.365-37.544-29.695 0-13.97 12.224-21.39 27.355-21.39ZM36.534.328a36.788 36.788 0 0 1 30.879 16.399l-15.22 8.829a19.03 19.03 0 0 0-15.659-8.12c-10.438 0-18.992 8.7-18.992 18.704 0 10.003 8.554 18.703 18.992 18.703a18.818 18.818 0 0 0 16.093-8.864l15.07 8.988a36.76 36.76 0 0 1-31.172 16.967C16.235 71.951 0 55.694 0 36.14 0 16.28 16.235.328 36.534.328ZM260.211 0l-3.29 16.643c-.605-.066-1.215-.1-1.825-.102-9.565.022-15.065 5.832-15.038 16.993l.097 37.105-17.83.04-.151-68.862 17.83-.04v7.978c4.153-6.48 10.899-9.68 20.207-9.755Zm179.173.049-3.306 16.625a18.589 18.589 0 0 0-1.826-.102c-9.556 0-15.07 5.797-15.07 16.962v37.11h-17.83V1.773h17.83V9.75c4.17-6.467 10.908-9.653 20.202-9.702ZM107.337 17.582c-10.437 0-18.991 8.7-18.991 18.558 0 10.003 8.554 18.703 18.991 18.703 10.602 0 19.138-8.7 19.138-18.703 0-9.857-8.554-18.558-19.138-18.558Zm368.426.007a19.055 19.055 0 0 0-13.456 5.634 19.054 19.054 0 0 0-5.531 13.497c0 9.57 8.554 18.123 18.996 18.123 10.57 0 19.12-8.554 19.12-18.269a19.06 19.06 0 0 0-19.13-18.985Zm-116.383-.875c-8.266 0-14.941 4.902-17.565 12.29l34.358.062c-1.002-6.959-8.24-12.34-16.793-12.352Z"/>
</svg>
